src/main/resources/icons/DatabaseIcons/icons/tablespace.svg

<svg xmlns="http://www.w3.org/2000/svg" width="16" height="16" viewBox="0 0 16 16">
  <g fill="none" fill-rule="evenodd">
    <path fill="#9AA7B0" fill-opacity=".8" d="M7.9844,4 L6.6964,2.711 C6.3044,2.32 5.5324,2 4.9784,2 L1.0504,2 C1.0234,2 1.0004,2.022 1.0004,2.051 L1.0004,13 L4,13 L4,8 L15.0004,8 L15.0004,4 L7.9844,4 Z"/>
    <path fill="#9AA7B0" d="M12,13 L12,14 L14,14 L14,11 L12,11 L12,12 L14,12 L14,13 L12,13 Z M11,13 L9,13 L9,14 L11,14 L11,13 Z M11,12 L11,11 L9,11 L9,12 L11,12 Z M8,13 L6,13 L6,12 L8,12 L8,11 L6,11 L6,14 L8,14 L8,13 Z M6,15 L5,15 L5,11 L5,9 L15,9 L15,11 L15,15 L14,15 L6,15 Z"/>
  </g>
</svg>

<svg xmlns="http://www.w3.org/2000/svg" width="16" height="16" viewBox="0 0 16 16"><rect id="frame" width="16" height="16" fill="none"/><g fill="#9AA7B0" fill-rule="evenodd"><path fill-opacity=".8" d="M7.984 4L6.696 2.711C6.304 2.32 5.532 2 4.978 2H1.05a.05.05 0 0 0-.05.051V13h3V8h11V4H7.984z"/><path d="M12 13v1h2v-3h-2v1h2v1h-2zm-1 0H9v1h2v-1zm0-1v-1H9v1h2zm-3 1H6v-1h2v-1H6v3h2v-1zm-2 2H5V9h10v6H6z"/></g></svg>
